epam-assets/icon-sources/18/palette.svg

<svg width="18" height="18" viewBox="0 0 18 18" fill="none" xmlns="http://www.w3.org/2000/svg">
<g id="18/palette">
<path id="icon" d="M9 16.5C7.975 16.5 7.00625 16.3031 6.09375 15.9094C5.18125 15.5156 4.38438 14.9781 3.70312 14.2969C3.02188 13.6156 2.48438 12.8188 2.09063 11.9062C1.69688 10.9938 1.5 10.025 1.5 9C1.5 7.9625 1.70313 6.9875 2.10938 6.075C2.51562 5.1625 3.06563 4.36875 3.75938 3.69375C4.45312 3.01875 5.2625 2.48438 6.1875 2.09063C7.1125 1.69688 8.1 1.5 9.15 1.5C10.15 1.5 11.0938 1.67188 11.9813 2.01562C12.8688 2.35938 13.6469 2.83438 14.3156 3.44063C14.9844 4.04688 15.5156 4.76563 15.9094 5.59688C16.3031 6.42813 16.5 7.325 16.5 8.2875C16.5 9.725 16.0625 10.8281 15.1875 11.5969C14.3125 12.3656 13.25 12.75 12 12.75H10.6125C10.5 12.75 10.4219 12.7812 10.3781 12.8438C10.3344 12.9062 10.3125 12.975 10.3125 13.05C10.3125 13.2 10.4062 13.4156 10.5938 13.6969C10.7812 13.9781 10.875 14.3 10.875 14.6625C10.875 15.2875 10.7031 15.75 10.3594 16.05C10.0156 16.35 9.5625 16.5 9 16.5ZM4.875 9.75C5.2 9.75 5.46875 9.64375 5.68125 9.43125C5.89375 9.21875 6 8.95 6 8.625C6 8.3 5.89375 8.03125 5.68125 7.81875C5.46875 7.60625 5.2 7.5 4.875 7.5C4.55 7.5 4.28125 7.60625 4.06875 7.81875C3.85625 8.03125 3.75 8.3 3.75 8.625C3.75 8.95 3.85625 9.21875 4.06875 9.43125C4.28125 9.64375 4.55 9.75 4.875 9.75ZM7.125 6.75C7.45 6.75 7.71875 6.64375 7.93125 6.43125C8.14375 6.21875 8.25 5.95 8.25 5.625C8.25 5.3 8.14375 5.03125 7.93125 4.81875C7.71875 4.60625 7.45 4.5 7.125 4.5C6.8 4.5 6.53125 4.60625 6.31875 4.81875C6.10625 5.03125 6 5.3 6 5.625C6 5.95 6.10625 6.21875 6.31875 6.43125C6.53125 6.64375 6.8 6.75 7.125 6.75ZM10.875 6.75C11.2 6.75 11.4688 6.64375 11.6813 6.43125C11.8938 6.21875 12 5.95 12 5.625C12 5.3 11.8938 5.03125 11.6813 4.81875C11.4688 4.60625 11.2 4.5 10.875 4.5C10.55 4.5 10.2812 4.60625 10.0688 4.81875C9.85625 5.03125 9.75 5.3 9.75 5.625C9.75 5.95 9.85625 6.21875 10.0688 6.43125C10.2812 6.64375 10.55 6.75 10.875 6.75ZM13.125 9.75C13.45 9.75 13.7188 9.64375 13.9313 9.43125C14.1438 9.21875 14.25 8.95 14.25 8.625C14.25 8.3 14.1438 8.03125 13.9313 7.81875C13.7188 7.60625 13.45 7.5 13.125 7.5C12.8 7.5 12.5312 7.60625 12.3188 7.81875C12.1063 8.03125 12 8.3 12 8.625C12 8.95 12.1063 9.21875 12.3188 9.43125C12.5312 9.64375 12.8 9.75 13.125 9.75ZM9 15C9.1125 15 9.20313 14.9688 9.27188 14.9063C9.34063 14.8438 9.375 14.7625 9.375 14.6625C9.375 14.4875 9.28125 14.2813 9.09375 14.0438C8.90625 13.8063 8.8125 13.45 8.8125 12.975C8.8125 12.45 8.99375 12.0312 9.35625 11.7188C9.71875 11.4062 10.1625 11.25 10.6875 11.25H12C12.825 11.25 13.5312 11.0094 14.1188 10.5281C14.7063 10.0469 15 9.3 15 8.2875C15 6.775 14.4219 5.51562 13.2656 4.50938C12.1094 3.50312 10.7375 3 9.15 3C7.45 3 6 3.58125 4.8 4.74375C3.6 5.90625 3 7.325 3 9C3 10.6625 3.58438 12.0781 4.75313 13.2469C5.92188 14.4156 7.3375 15 9 15Z" fill="#6C6F80"/>
</g>
</svg>

<svg xmlns="http://www.w3.org/2000/svg" width="18" height="18" fill="none" viewBox="0 0 18 18">
  <path fill="#6C6F80" d="M9 16.5a7.258 7.258 0 0 1-2.906-.59 7.61 7.61 0 0 1-2.39-1.613 7.607 7.607 0 0 1-1.613-2.39A7.256 7.256 0 0 1 1.5 9a7.11 7.11 0 0 1 .61-2.925 7.598 7.598 0 0 1 1.65-2.381A7.86 7.86 0 0 1 6.187 2.09 7.484 7.484 0 0 1 9.15 1.5c1 0 1.944.172 2.831.516a7.437 7.437 0 0 1 2.335 1.425 6.82 6.82 0 0 1 1.593 2.156 6.2 6.2 0 0 1 .591 2.69c0 1.438-.438 2.541-1.313 3.31-.874.769-1.937 1.153-3.187 1.153h-1.387c-.113 0-.191.031-.235.094a.352.352 0 0 0-.066.206c0 .15.094.366.282.647.187.281.281.603.281.966 0 .624-.172 1.087-.516 1.387-.343.3-.796.45-1.359.45ZM4.875 9.75A1.09 1.09 0 0 0 6 8.625a1.09 1.09 0 0 0-.319-.806 1.093 1.093 0 0 0-.806-.319 1.09 1.09 0 0 0-.806.319 1.093 1.093 0 0 0-.319.806A1.09 1.09 0 0 0 4.875 9.75Zm2.25-3A1.09 1.09 0 0 0 8.25 5.625a1.09 1.09 0 0 0-.319-.806 1.093 1.093 0 0 0-.806-.319 1.09 1.09 0 0 0-.806.319A1.093 1.093 0 0 0 6 5.625 1.09 1.09 0 0 0 7.125 6.75Zm3.75 0A1.09 1.09 0 0 0 12 5.625a1.09 1.09 0 0 0-.319-.806 1.093 1.093 0 0 0-.806-.319 1.09 1.09 0 0 0-.806.319 1.093 1.093 0 0 0-.319.806 1.09 1.09 0 0 0 1.125 1.125Zm2.25 3a1.09 1.09 0 0 0 1.125-1.125 1.09 1.09 0 0 0-.319-.806 1.093 1.093 0 0 0-.806-.319 1.09 1.09 0 0 0-.806.319 1.093 1.093 0 0 0-.319.806 1.09 1.09 0 0 0 1.125 1.125ZM9 15a.389.389 0 0 0 .272-.094.314.314 0 0 0 .103-.244c0-.175-.094-.38-.281-.618-.188-.238-.281-.594-.281-1.069 0-.525.18-.944.543-1.256.363-.313.806-.469 1.332-.469H12c.825 0 1.531-.24 2.119-.722.587-.481.881-1.228.881-2.24 0-1.513-.578-2.772-1.734-3.779C12.109 3.503 10.738 3 9.15 3 7.45 3 6 3.581 4.8 4.744 3.6 5.906 3 7.325 3 9c0 1.662.584 3.078 1.753 4.247S7.338 15 9 15Z"/>
</svg>
